icon-svg/twist-thermostat.svg

<svg xmlns="http://www.w3.org/2000/svg" fill="#44739e" viewBox="0 0 24 24"><path d="M15.281 12.781a2.42 2.42 0 0 0-1.706-.11 2.9 2.9 0 0 0-1.651 2.942 3.12 3.12 0 0 0 1.181 2 1.654 1.654 0 0 0 1.192.306 1.63 1.63 0 0 0 1.214-.328 2.862 2.862 0 0 0 1.115-2.329 4.1 4.1 0 0 0-.175-1.126 3.41 3.41 0 0 0-1.17-1.355m-.24 4.6a2.142 2.142 0 0 1-1.433.055c-.317-.12-.962-.765-.962-.962 0-.1.372-.142 1.509-.175.82-.011 1.553-.044 1.629-.055a.228.228 0 0 1 .2.077c.074.145-.561.856-.943 1.063zm1.192-1.946-.033.4h-3.827l-.033-.513a2.256 2.256 0 0 1 1.892-2.384 2.221 2.221 0 0 1 2 2.493zm5.757-3.094-.034-7-.376-.389a2.15 2.15 0 0 0-.575-.448l-.017-.004c-.284-.081-16.3-.805-16.8-.817a5.85 5.85 0 0 0-.811.171 3 3 0 0 0-.825.326C2 4.627 2 4.627 2 12.035v.754C2 19.5 2 19.5 2.647 19.9l.046.028c.423.267.7.39 2.269.39 1.318 0 3.549-.086 7.545-.247 6.773-.284 8.4-.379 8.685-.511l.053-.023c.777-.337.777-.337.745-7.196m-18.4-.306c0 4.537 0 6.418-.07 6.9a.68.68 0 0 1-.158-.115c-.155-.155-.155-.913-.155-6.811 0-4.926.011-6.662.13-6.8a.438.438 0 0 1 .242-.125h.011Zm4.7 6.954-3.7.139-.134-.171c-.134-.157-.156-.394-.156-1.684v-1.356h5.462l.048.315a4.38 4.38 0 0 0 1.636 2.621c-.672.036-1.796.087-3.156.136m2.622-2.162-.1.043-.013-.028a2.844 2.844 0 0 1-.269-1.524 2.906 2.906 0 0 1 .218-1.388l.1.04a4.423 4.423 0 0 0 .064 2.857M9.776 14.6l-.044.388-1.8.03-1.78.02V6.5l1.006.053c.619.031 3.349.139 6.149.23 3.159.115 5.21.2 5.487.229l.371.035v7.883h-1.211l-.047-.288a4.057 4.057 0 0 0-2.032-3.019c-.61-.347-.744-.357-2.011-.357a3.6 3.6 0 0 0-1.924.275A4.21 4.21 0 0 0 9.776 14.6m4.5 3.983h-.026a2.414 2.414 0 0 1-1.923-.874 3.844 3.844 0 0 1-.673-3.69 3.708 3.708 0 0 1 1.675-1.8 3.17 3.17 0 0 1 .915-.118 2.9 2.9 0 0 1 1.083.174 3.657 3.657 0 0 1 1.473 1.531 4.772 4.772 0 0 1 .03 3.014 2.789 2.789 0 0 1-2.554 1.765zM20.7 17.01a7.75 7.75 0 0 1-.051 1.4.27.27 0 0 1-.045.02 24.1 24.1 0 0 1-2.481.162l-1.684.056.061-.048a4.31 4.31 0 0 0 1.36-2.332l.088-.452L19 15.775c.635-.011 1.341-.042 1.585-.055l.118-.008zm0-2.077h-.657v-4.024c0-1.105-.009-2.183-.027-3.035-.028-1.346-.052-1.383-.1-1.45-.107-.161-.156-.234-7.194-.491-6.179-.23-7-.222-7.145-.2-.252.076-.3.089-.3 4.889v4.418H4.3v-4.787c0-3.932.015-4.95.15-5.139l.107-.161 1.691.062 1.292.056c1.6.069 4.2.181 6.7.293 3.435.155 6.083.319 6.367.372l.1.043z"/></svg>

<?xml version="1.0" encoding="UTF-8"?>
<svg width="24px" fill="#44739e" height="24px" viewBox="0 0 24 24" version="1.1" xmlns="http://www.w3.org/2000/svg" xmlns:xlink="http://www.w3.org/1999/xlink">
            <path d="m 15.281,12.781 a 2.42,2.42 0 0 0 -1.706,-0.11 2.9,2.9 0 0 0 -1.651,2.942 3.119,3.119 0 0 0 1.181,2 1.654,1.654 0 0 0 1.192,0.306 1.63,1.63 0 0 0 1.214,-0.328 2.862,2.862 0 0 0 1.115,-2.329 4.1,4.1 0 0 0 -0.175,-1.126 3.408,3.408 0 0 0 -1.17,-1.355 z m -0.24,4.6 a 2.142,2.142 0 0 1 -1.433,0.055 c -0.317,-0.12 -0.962,-0.765 -0.962,-0.962 0,-0.1 0.372,-0.142 1.509,-0.175 0.82,-0.011 1.553,-0.044 1.629,-0.055 a 0.228,0.228 0 0 1 0.2,0.077 c 0.074,0.145 -0.561,0.856 -0.943,1.063 z m 1.192,-1.946 -0.033,0.4 H 12.373 L 12.34,15.322 a 2.256,2.256 0 0 1 1.892,-2.384 2.221,2.221 0 0 1 2,2.493 z m 5.757,-3.094 -0.034,-7 L 21.58,4.952 A 2.153,2.153 0 0 0 21.005,4.504 L 20.988,4.5 C 20.704,4.419 4.688,3.695 4.188,3.683 v 0 A 5.853,5.853 0 0 0 3.377,3.854 3,3 0 0 0 2.552,4.18 C 2,4.627 2,4.627 2,12.035 v 0.754 C 2,19.5 2,19.5 2.647,19.9 l 0.046,0.028 c 0.423,0.267 0.7,0.39 2.269,0.39 1.318,0 3.549,-0.086 7.545,-0.247 6.773,-0.284 8.4,-0.379 8.685,-0.511 l 0.053,-0.023 C 22.022,19.2 22.022,19.2 21.99,12.341 Z M 3.59,12.035 c 0,4.537 0,6.418 -0.07,6.9 A 0.682,0.682 0 0 1 3.362,18.82 C 3.207,18.665 3.207,17.907 3.207,12.009 c 0,-4.926 0.011,-6.662 0.13,-6.8 A 0.438,0.438 0 0 1 3.579,5.084 H 3.59 Z m 4.7,6.954 -3.7,0.139 -0.134,-0.171 C 4.322,18.8 4.3,18.563 4.3,17.273 v -1.356 h 5.462 l 0.048,0.315 a 4.381,4.381 0 0 0 1.636,2.621 C 10.774,18.889 9.65,18.94 8.29,18.989 Z m 2.622,-2.162 -0.1,0.043 -0.013,-0.028 A 2.844,2.844 0 0 1 10.53,15.318 2.906,2.906 0 0 1 10.748,13.93 l 0.1,0.04 a 4.423,4.423 0 0 0 0.064,2.857 z M 9.776,14.6 l -0.044,0.388 -1.8,0.03 -1.78,0.02 V 6.5 l 1.006,0.053 c 0.619,0.031 3.349,0.139 6.149,0.23 3.159,0.115 5.21,0.2 5.487,0.229 l 0.371,0.035 v 7.883 h -1.211 l -0.047,-0.288 a 4.057,4.057 0 0 0 -2.032,-3.019 c -0.61,-0.347 -0.744,-0.357 -2.011,-0.357 A 3.6,3.6 0 0 0 11.94,11.541 4.21,4.21 0 0 0 9.776,14.6 Z m 4.5,3.983 H 14.25 a 2.414,2.414 0 0 1 -1.923,-0.874 3.844,3.844 0 0 1 -0.673,-3.69 3.708,3.708 0 0 1 1.675,-1.8 3.169,3.169 0 0 1 0.915,-0.118 2.9,2.9 0 0 1 1.083,0.174 3.657,3.657 0 0 1 1.473,1.531 4.772,4.772 0 0 1 0.03,3.014 2.789,2.789 0 0 1 -2.554,1.765 z M 20.7,17.01 a 7.752,7.752 0 0 1 -0.051,1.4 0.272,0.272 0 0 1 -0.045,0.02 24.138,24.138 0 0 1 -2.481,0.162 L 16.439,18.648 16.5,18.6 a 4.309,4.309 0 0 0 1.36,-2.332 L 17.948,15.816 19,15.775 c 0.635,-0.011 1.341,-0.042 1.585,-0.055 l 0.118,-0.008 z m 0,-2.077 H 20.043 V 10.909 C 20.043,9.804 20.034,8.726 20.016,7.874 19.988,6.528 19.964,6.491 19.916,6.424 19.809,6.263 19.76,6.19 12.722,5.933 6.543,5.703 5.722,5.711 5.577,5.733 v 0 c -0.252,0.076 -0.3,0.089 -0.3,4.889 V 15.04 H 4.3 V 10.253 C 4.3,6.321 4.315,5.303 4.45,5.114 L 4.557,4.953 6.248,5.015 7.54,5.071 c 1.6,0.069 4.2,0.181 6.7,0.293 3.435,0.155 6.083,0.319 6.367,0.372 l 0.1,0.043 z"/>

</svg>
